public/logos/CM.svg

<?xml version="1.0" encoding="UTF-8"?>
<svg xmlns="http://www.w3.org/2000/svg" xmlns:xlink="http://www.w3.org/1999/xlink" width="176pt" height="30.2pt" viewBox="0 0 176 30.2" version="1.1">
<defs>
<clipPath id="clip1">
  <path d="M 152 26 L 171 26 L 171 30.199219 L 152 30.199219 Z M 152 26 "/>
</clipPath>
<clipPath id="clip2">
  <path d="M 145 21 L 173 21 L 173 30.199219 L 145 30.199219 Z M 145 21 "/>
</clipPath>
<clipPath id="clip3">
  <path d="M 145 0 L 176 0 L 176 30.199219 L 145 30.199219 Z M 145 0 "/>
</clipPath>
</defs>
<g id="surface1">
<g clip-path="url(#clip1)" clip-rule="nonzero">
<path style=" stroke:none;fill-rule:evenodd;fill:rgb(19.604492%,41.174316%,73.28186%);fill-opacity:1;" d="M 170.621094 30.199219 C 170.554688 30.066406 170.554688 29.933594 170.484375 29.863281 C 169.746094 28.519531 168.46875 27.578125 166.71875 27.039062 C 165.035156 26.570312 163.019531 26.570312 160.800781 26.972656 C 158.445312 27.375 156.09375 28.316406 153.804688 29.59375 C 153.46875 29.796875 153.132812 30 152.796875 30.199219 L 170.621094 30.199219 "/>
</g>
<g clip-path="url(#clip2)" clip-rule="nonzero">
<path style=" stroke:none;fill-rule:evenodd;fill:rgb(19.604492%,41.174316%,73.28186%);fill-opacity:1;" d="M 171.292969 25.492188 C 170.484375 23.878906 168.9375 22.734375 166.855469 22.128906 C 164.835938 21.589844 162.347656 21.523438 159.65625 22.0625 C 156.898438 22.601562 154.007812 23.675781 151.316406 25.222656 C 149.230469 26.433594 147.417969 27.777344 145.800781 29.328125 L 145.800781 30.199219 L 151.789062 30.199219 C 152.460938 29.660156 153.199219 29.125 154.007812 28.652344 C 156.832031 26.902344 159.925781 25.695312 162.816406 25.289062 C 165.644531 24.953125 168.066406 25.355469 169.679688 26.433594 C 170.890625 27.375 171.628906 28.652344 171.765625 30.199219 L 171.964844 30.199219 L 172.03125 29.460938 C 172.164062 27.980469 171.964844 26.636719 171.292969 25.492188 "/>
</g>
<g clip-path="url(#clip3)" clip-rule="nonzero">
<path style=" stroke:none;fill-rule:evenodd;fill:rgb(19.604492%,41.174316%,73.28186%);fill-opacity:1;" d="M 145.800781 8.074219 L 145.800781 0.00390625 L 176 0.00390625 L 176 30.199219 L 172.03125 30.199219 C 172.367188 28.183594 172.164062 26.300781 172.164062 26.300781 C 171.832031 23.339844 170.148438 21.390625 167.257812 20.582031 C 164.164062 19.710938 159.859375 20.3125 155.488281 22.199219 C 153.335938 23.136719 151.25 24.347656 149.300781 25.761719 C 148.019531 26.703125 146.8125 27.777344 145.800781 28.855469 L 145.800781 22.867188 C 146.742188 22.199219 147.753906 21.523438 148.828125 20.917969 C 151.789062 19.238281 155.015625 17.960938 158.042969 17.421875 C 161.003906 16.816406 163.761719 16.882812 165.980469 17.554688 C 168.332031 18.160156 170.015625 19.507812 170.957031 21.253906 C 171.226562 21.726562 171.425781 22.261719 171.5625 22.867188 L 171.832031 23.945312 C 171.765625 22.0625 170.820312 20.109375 170.820312 20.109375 C 169.546875 17.554688 167.121094 16.074219 163.625 15.738281 C 161.878906 15.605469 159.859375 15.738281 157.773438 16.277344 C 155.6875 16.75 153.535156 17.554688 151.386719 18.632812 C 149.433594 19.640625 147.550781 20.851562 145.800781 22.261719 L 145.800781 17.351562 C 146.003906 17.21875 146.207031 17.085938 146.40625 16.949219 C 155.757812 11.570312 165.644531 11.503906 169.007812 16.816406 L 169.476562 17.554688 C 169.007812 16.144531 167.527344 14.59375 167.527344 14.59375 C 165.507812 12.578125 162.550781 11.570312 158.851562 11.839844 C 155.285156 12.105469 151.117188 13.519531 147.214844 15.804688 C 146.742188 16.074219 146.273438 16.34375 145.800781 16.679688 L 145.800781 12.980469 C 153.066406 9.214844 160.664062 8.742188 164.632812 11.90625 L 164.96875 12.175781 C 164.363281 11.300781 162.75 10.425781 162.75 10.425781 C 158.445312 8.140625 151.855469 9.148438 145.800781 12.445312 L 145.800781 10.15625 C 147.753906 9.28125 149.703125 8.675781 151.652344 8.339844 C 154.410156 7.871094 156.898438 8.003906 158.851562 8.675781 L 159.589844 8.945312 C 158.175781 8.074219 156.765625 7.9375 156.765625 7.9375 C 153.402344 7.332031 149.230469 8.003906 145.800781 9.617188 L 145.800781 8.675781 C 147.6875 8.003906 149.570312 7.601562 151.316406 7.535156 L 152.796875 7.46875 C 149.164062 6.925781 145.800781 8.074219 145.800781 8.074219 "/>
</g>
<path style=" stroke:none;fill-rule:evenodd;fill:rgb(100%,100%,100%);fill-opacity:1;" d="M 145.800781 20.179688 L 145.800781 21.863281 C 157.910156 11.839844 173.578125 13.988281 176 14.394531 C 176 14.394531 159.589844 10.089844 145.800781 20.179688 "/>
<path style=" stroke:none;fill-rule:evenodd;fill:rgb(100%,100%,100%);fill-opacity:1;" d="M 145.800781 14.664062 L 145.800781 16.144531 C 157.4375 8.339844 171.089844 10.226562 173.378906 10.628906 C 173.378906 10.628906 158.984375 6.859375 145.800781 14.664062 "/>
<path style=" stroke:none;fill-rule:evenodd;fill:rgb(100%,100%,100%);fill-opacity:1;" d="M 171.765625 7.332031 C 171.765625 7.332031 158.515625 3.835938 145.800781 10.492188 L 145.800781 11.839844 C 157.035156 5.246094 169.609375 6.925781 171.765625 7.332031 "/>
<path style=" stroke:none;fill-rule:nonzero;fill:rgb(19.604492%,41.174316%,73.28186%);fill-opacity:1;" d="M 11.75 16.070312 L 15.15625 16.902344 C 14.632812 18.371094 13.765625 19.464844 12.550781 20.175781 C 11.335938 20.890625 9.792969 21.246094 7.925781 21.246094 C 5.617188 21.246094 3.71875 20.636719 2.230469 19.414062 C 0.742188 18.195312 0 16.523438 0 14.40625 C 0 12.164062 0.746094 10.425781 2.242188 9.183594 C 3.738281 7.945312 5.707031 7.328125 8.140625 7.328125 C 10.269531 7.328125 11.996094 7.8125 13.328125 8.785156 C 14.117188 9.363281 14.710938 10.1875 15.109375 11.265625 L 11.628906 11.90625 C 11.425781 11.210938 10.996094 10.660156 10.34375 10.257812 C 9.6875 9.851562 8.894531 9.648438 7.964844 9.648438 C 6.671875 9.648438 5.625 10.007812 4.824219 10.722656 C 4.019531 11.441406 3.617188 12.597656 3.617188 14.203125 C 3.617188 15.90625 4.015625 17.117188 4.804688 17.839844 C 5.597656 18.5625 6.625 18.921875 7.890625 18.921875 C 8.824219 18.921875 9.628906 18.695312 10.300781 18.234375 C 10.972656 17.777344 11.457031 17.050781 11.75 16.070312 "/>
<path style=" stroke:none;fill-rule:nonzero;fill:rgb(19.604492%,41.174316%,73.28186%);fill-opacity:1;" d="M 19.84375 16.140625 C 19.84375 17.109375 20.140625 17.847656 20.734375 18.363281 C 21.328125 18.878906 22.058594 19.136719 22.929688 19.136719 C 23.800781 19.136719 24.53125 18.878906 25.121094 18.363281 C 25.707031 17.847656 26.003906 17.101562 26.003906 16.121094 C 26.003906 15.167969 25.707031 14.433594 25.121094 13.917969 C 24.53125 13.402344 23.800781 13.148438 22.929688 13.148438 C 22.058594 13.148438 21.328125 13.402344 20.734375 13.917969 C 20.140625 14.433594 19.84375 15.171875 19.84375 16.140625 Z M 16.425781 16.003906 C 16.425781 15.148438 16.699219 14.316406 17.246094 13.515625 C 17.789062 12.714844 18.5625 12.101562 19.566406 11.679688 C 20.566406 11.257812 21.683594 11.042969 22.917969 11.042969 C 24.824219 11.042969 26.386719 11.523438 27.605469 12.480469 C 28.824219 13.441406 29.433594 14.652344 29.433594 16.113281 C 29.433594 17.589844 28.816406 18.8125 27.585938 19.78125 C 26.355469 20.75 24.808594 21.238281 22.941406 21.238281 C 21.785156 21.238281 20.683594 21.035156 19.636719 20.632812 C 18.585938 20.226562 17.789062 19.636719 17.246094 18.855469 C 16.699219 18.074219 16.425781 17.121094 16.425781 16.003906 "/>
<path style=" stroke:none;fill-rule:nonzero;fill:rgb(19.604492%,41.174316%,73.28186%);fill-opacity:1;" d="M 34.300781 15.976562 C 34.300781 17.070312 34.582031 17.882812 35.144531 18.402344 C 35.703125 18.925781 36.390625 19.191406 37.195312 19.191406 C 37.96875 19.191406 38.617188 18.949219 39.128906 18.46875 C 39.644531 17.988281 39.902344 17.199219 39.902344 16.105469 C 39.902344 15.082031 39.636719 14.324219 39.105469 13.828125 C 38.578125 13.332031 37.917969 13.085938 37.136719 13.085938 C 36.324219 13.085938 35.644531 13.328125 35.105469 13.8125 C 34.570312 14.300781 34.300781 15.019531 34.300781 15.976562 Z M 31 11.265625 L 34.109375 11.265625 L 34.109375 12.699219 C 34.515625 12.207031 35.058594 11.808594 35.746094 11.503906 C 36.4375 11.199219 37.199219 11.042969 38.039062 11.042969 C 39.5 11.042969 40.742188 11.488281 41.765625 12.375 C 42.785156 13.265625 43.296875 14.5 43.296875 16.085938 C 43.296875 17.714844 42.78125 18.980469 41.753906 19.882812 C 40.722656 20.785156 39.476562 21.238281 38.015625 21.238281 C 37.320312 21.238281 36.6875 21.128906 36.121094 20.917969 C 35.554688 20.703125 34.960938 20.332031 34.335938 19.816406 L 34.335938 24.726562 L 31 24.726562 L 31 11.265625 "/>
<path style=" stroke:none;fill-rule:nonzero;fill:rgb(19.604492%,41.174316%,73.28186%);fill-opacity:1;" d="M 51.949219 16.335938 C 51.523438 16.445312 50.84375 16.578125 49.917969 16.726562 C 48.992188 16.882812 48.386719 17.03125 48.101562 17.175781 C 47.667969 17.417969 47.453125 17.71875 47.453125 18.089844 C 47.453125 18.449219 47.625 18.761719 47.972656 19.023438 C 48.320312 19.289062 48.765625 19.417969 49.300781 19.417969 C 49.902344 19.417969 50.476562 19.265625 51.023438 18.960938 C 51.425781 18.726562 51.691406 18.445312 51.816406 18.105469 C 51.90625 17.886719 51.949219 17.464844 51.949219 16.847656 Z M 47.488281 14.242188 L 44.460938 13.820312 C 44.800781 12.875 45.386719 12.175781 46.214844 11.722656 C 47.046875 11.273438 48.28125 11.042969 49.917969 11.042969 C 51.40625 11.042969 52.515625 11.179688 53.242188 11.453125 C 53.96875 11.726562 54.480469 12.070312 54.777344 12.492188 C 55.074219 12.910156 55.222656 13.679688 55.222656 14.800781 L 55.1875 17.8125 C 55.1875 18.667969 55.242188 19.300781 55.347656 19.707031 C 55.457031 20.113281 55.65625 20.550781 55.949219 21.015625 L 52.648438 21.015625 C 52.5625 20.84375 52.457031 20.589844 52.328125 20.253906 C 52.273438 20.101562 52.234375 20 52.210938 19.953125 C 51.640625 20.378906 51.03125 20.703125 50.382812 20.917969 C 49.734375 21.128906 49.039062 21.238281 48.304688 21.238281 C 47.007812 21.238281 45.984375 20.964844 45.238281 20.417969 C 44.492188 19.875 44.117188 19.1875 44.117188 18.355469 C 44.117188 17.800781 44.285156 17.3125 44.625 16.878906 C 44.964844 16.449219 45.441406 16.117188 46.054688 15.890625 C 46.667969 15.660156 47.554688 15.460938 48.710938 15.285156 C 50.265625 15.0625 51.347656 14.847656 51.949219 14.652344 L 51.949219 14.398438 C 51.949219 13.902344 51.789062 13.546875 51.472656 13.335938 C 51.15625 13.125 50.558594 13.019531 49.683594 13.019531 C 49.089844 13.019531 48.625 13.109375 48.292969 13.289062 C 47.960938 13.46875 47.691406 13.789062 47.488281 14.242188 "/>
<path style=" stroke:none;fill-rule:nonzero;fill:rgb(19.604492%,41.174316%,73.28186%);fill-opacity:1;" d="M 69.519531 15.691406 L 67.121094 10.695312 L 64.769531 15.691406 Z M 75.984375 21.015625 L 72.164062 21.015625 L 70.644531 17.960938 L 63.691406 17.960938 L 62.253906 21.015625 L 58.527344 21.015625 L 65.304688 7.554688 L 69.019531 7.554688 L 75.984375 21.015625 "/>
<path style=" stroke:none;fill-rule:nonzero;fill:rgb(19.604492%,41.174316%,73.28186%);fill-opacity:1;" d="M 76.878906 21.015625 L 76.878906 11.265625 L 80.210938 11.265625 L 80.210938 21.015625 Z M 76.878906 9.945312 L 76.878906 7.554688 L 80.210938 7.554688 L 80.210938 9.945312 L 76.878906 9.945312 "/>
<path style=" stroke:none;fill-rule:nonzero;fill:rgb(19.604492%,41.174316%,73.28186%);fill-opacity:1;" d="M 85.875 21.015625 L 82.539062 21.015625 L 82.539062 11.265625 L 85.636719 11.265625 L 85.636719 12.652344 C 86.167969 11.996094 86.644531 11.566406 87.066406 11.355469 C 87.488281 11.148438 87.972656 11.042969 88.507812 11.042969 C 89.269531 11.042969 90 11.207031 90.707031 11.53125 L 89.671875 13.78125 C 89.109375 13.5 88.585938 13.359375 88.105469 13.359375 C 87.640625 13.359375 87.242188 13.457031 86.917969 13.65625 C 86.59375 13.855469 86.339844 14.214844 86.152344 14.734375 C 85.96875 15.257812 85.875 16.347656 85.875 18.003906 L 85.875 21.015625 "/>
<path style=" stroke:none;fill-rule:nonzero;fill:rgb(19.604492%,41.174316%,73.28186%);fill-opacity:1;" d="M 91.191406 21.015625 L 91.191406 7.554688 L 94.527344 7.554688 L 94.527344 21.015625 L 91.191406 21.015625 "/>
<path style=" stroke:none;fill-rule:nonzero;fill:rgb(19.604492%,41.174316%,73.28186%);fill-opacity:1;" d="M 96.996094 21.015625 L 96.996094 11.265625 L 100.332031 11.265625 L 100.332031 21.015625 Z M 96.996094 9.945312 L 96.996094 7.554688 L 100.332031 7.554688 L 100.332031 9.945312 L 96.996094 9.945312 "/>
<path style=" stroke:none;fill-rule:nonzero;fill:rgb(19.604492%,41.174316%,73.28186%);fill-opacity:1;" d="M 114.265625 21.015625 L 110.933594 21.015625 L 110.933594 16.039062 C 110.933594 14.984375 110.859375 14.304688 110.71875 13.996094 C 110.574219 13.6875 110.34375 13.449219 110.023438 13.277344 C 109.703125 13.105469 109.316406 13.019531 108.867188 13.019531 C 108.289062 13.019531 107.769531 13.140625 107.3125 13.386719 C 106.851562 13.632812 106.539062 13.957031 106.367188 14.359375 C 106.199219 14.765625 106.113281 15.511719 106.113281 16.601562 L 106.113281 21.015625 L 102.777344 21.015625 L 102.777344 11.265625 L 105.875 11.265625 L 105.875 12.699219 C 106.976562 11.597656 108.359375 11.042969 110.027344 11.042969 C 110.765625 11.042969 111.4375 11.148438 112.046875 11.351562 C 112.65625 11.558594 113.117188 11.820312 113.429688 12.136719 C 113.742188 12.457031 113.960938 12.816406 114.082031 13.21875 C 114.203125 13.625 114.265625 14.203125 114.265625 14.957031 L 114.265625 21.015625 "/>
<path style=" stroke:none;fill-rule:nonzero;fill:rgb(19.604492%,41.174316%,73.28186%);fill-opacity:1;" d="M 124.1875 15.304688 C 124.164062 14.558594 123.914062 13.992188 123.441406 13.601562 C 122.96875 13.214844 122.390625 13.019531 121.710938 13.019531 C 120.980469 13.019531 120.378906 13.222656 119.902344 13.632812 C 119.429688 14.042969 119.195312 14.601562 119.203125 15.304688 Z M 124 17.914062 L 127.320312 18.34375 C 126.894531 19.289062 126.222656 20.007812 125.300781 20.5 C 124.378906 20.992188 123.226562 21.238281 121.839844 21.238281 C 119.648438 21.238281 118.023438 20.683594 116.972656 19.574219 C 116.144531 18.6875 115.726562 17.566406 115.726562 16.214844 C 115.726562 14.597656 116.273438 13.332031 117.363281 12.417969 C 118.457031 11.503906 119.839844 11.042969 121.507812 11.042969 C 123.382812 11.042969 124.859375 11.523438 125.945312 12.480469 C 127.027344 13.441406 127.546875 14.90625 127.5 16.886719 L 119.144531 16.886719 C 119.167969 17.652344 119.4375 18.246094 119.953125 18.671875 C 120.46875 19.09375 121.105469 19.308594 121.875 19.308594 C 122.398438 19.308594 122.835938 19.199219 123.191406 18.976562 C 123.546875 18.757812 123.816406 18.402344 124 17.914062 "/>
<path style=" stroke:none;fill-rule:nonzero;fill:rgb(19.604492%,41.174316%,73.28186%);fill-opacity:1;" d="M 128.09375 18.234375 L 131.441406 17.839844 C 131.585938 18.339844 131.871094 18.722656 132.308594 18.984375 C 132.742188 19.242188 133.351562 19.371094 134.136719 19.371094 C 134.996094 19.371094 135.644531 19.25 136.082031 19.007812 C 136.375 18.835938 136.519531 18.605469 136.519531 18.316406 C 136.519531 18.121094 136.441406 17.960938 136.28125 17.832031 C 136.117188 17.707031 135.746094 17.59375 135.167969 17.488281 C 132.480469 17.03125 130.773438 16.613281 130.054688 16.230469 C 129.058594 15.707031 128.558594 14.972656 128.558594 14.039062 C 128.558594 13.195312 128.988281 12.484375 129.851562 11.90625 C 130.714844 11.332031 132.050781 11.042969 133.863281 11.042969 C 135.585938 11.042969 136.867188 11.261719 137.707031 11.699219 C 138.546875 12.132812 139.121094 12.777344 139.441406 13.625 L 136.296875 14.074219 C 136.160156 13.695312 135.90625 13.402344 135.527344 13.203125 C 135.152344 13 134.617188 12.898438 133.921875 12.898438 C 133.042969 12.898438 132.414062 12.996094 132.035156 13.183594 C 131.78125 13.320312 131.65625 13.492188 131.65625 13.707031 C 131.65625 13.890625 131.765625 14.046875 131.988281 14.175781 C 132.289062 14.347656 133.324219 14.589844 135.101562 14.902344 C 136.878906 15.214844 138.117188 15.59375 138.824219 16.046875 C 139.519531 16.507812 139.867188 17.148438 139.867188 17.96875 C 139.867188 18.863281 139.386719 19.628906 138.421875 20.273438 C 137.453125 20.917969 136.027344 21.238281 134.136719 21.238281 C 132.417969 21.238281 131.058594 20.96875 130.058594 20.429688 C 129.058594 19.890625 128.402344 19.160156 128.09375 18.234375 "/>
</g>
</svg>

<svg xmlns="http://www.w3.org/2000/svg" width="176pt" height="30.2pt" viewBox="0 0 176 30.2"><defs><clipPath id="a"><path d="M152 26h19v4.2h-19Zm0 0"/></clipPath><clipPath id="b"><path d="M145 21h28v9.2h-28Zm0 0"/></clipPath><clipPath id="c"><path d="M145 0h31v30.2h-31Zm0 0"/></clipPath></defs><g clip-path="url(#a)"><path d="M170.621 30.2c-.066-.134-.066-.266-.137-.337-.738-1.343-2.015-2.285-3.765-2.824-1.684-.469-3.7-.469-5.918-.066-2.356.402-4.707 1.343-6.996 2.62q-.504.307-1.008.606z" style="stroke:none;fill-rule:evenodd;fill:#3269bb;fill-opacity:1"/></g><g clip-path="url(#b)"><path d="M171.293 25.492c-.809-1.613-2.356-2.758-4.438-3.363-2.02-.54-4.507-.606-7.199-.067-2.758.54-5.648 1.614-8.34 3.16-2.086 1.212-3.898 2.555-5.515 4.106v.871h5.988c.672-.539 1.41-1.074 2.219-1.547 2.824-1.75 5.918-2.957 8.808-3.363 2.829-.336 5.25.066 6.864 1.145 1.21.941 1.949 2.218 2.086 3.765h.199l.066-.738c.133-1.48-.066-2.824-.738-3.969" style="stroke:none;fill-rule:evenodd;fill:#3269bb;fill-opacity:1"/></g><g clip-path="url(#c)"><path d="M145.8 8.074V.004H176v30.195h-3.969c.336-2.015.133-3.898.133-3.898-.332-2.961-2.016-4.91-4.906-5.719-3.094-.871-7.399-.27-11.77 1.617a33 33 0 0 0-6.187 3.563 26 26 0 0 0-3.5 3.093v-5.988a35 35 0 0 1 3.027-1.949c2.961-1.68 6.188-2.957 9.215-3.496 2.96-.606 5.719-.54 7.937.133 2.352.605 4.036 1.953 4.977 3.699.27.473.469 1.008.606 1.613l.269 1.078c-.066-1.883-1.012-3.836-1.012-3.836-1.273-2.554-3.699-4.035-7.195-4.37-1.746-.134-3.766 0-5.852.538-2.085.473-4.238 1.278-6.386 2.356a33 33 0 0 0-5.586 3.629v-4.91q.306-.198.605-.403c9.352-5.379 19.239-5.445 22.602-.133l.469.739c-.47-1.41-1.95-2.961-1.95-2.961-2.02-2.016-4.976-3.024-8.675-2.754-3.567.265-7.735 1.68-11.637 3.965-.473.27-.942.539-1.414.875v-3.7c7.265-3.765 14.863-4.238 18.832-1.074l.336.27c-.606-.875-2.219-1.75-2.219-1.75-4.305-2.285-10.895-1.278-16.95 2.02v-2.29q2.93-1.312 5.852-1.816c2.758-.469 5.246-.336 7.2.336l.738.27c-1.414-.872-2.824-1.008-2.824-1.008-3.364-.606-7.536.066-10.965 1.68v-.942c1.887-.672 3.77-1.074 5.515-1.14l1.48-.067c-3.632-.543-6.995.605-6.995.605" style="stroke:none;fill-rule:evenodd;fill:#3269bb;fill-opacity:1"/></g><path d="M145.8 20.18v1.683c12.11-10.023 27.778-7.875 30.2-7.468 0 0-16.41-4.305-30.2 5.785M145.8 14.664v1.48c11.637-7.804 25.29-5.917 27.579-5.515 0 0-14.395-3.77-27.578 4.035M171.766 7.332s-13.25-3.496-25.965 3.16v1.348c11.234-6.594 23.808-4.914 25.965-4.508" style="stroke:none;fill-rule:evenodd;fill:#fff;fill-opacity:1"/><path d="m11.75 16.07 3.406.832q-.784 2.206-2.605 3.274-1.823 1.071-4.625 1.07-3.463 0-5.696-1.832Q0 17.584 0 14.406q-.001-3.361 2.242-5.222c1.496-1.239 3.465-1.856 5.899-1.856 2.129 0 3.855.484 5.187 1.457.79.578 1.383 1.402 1.781 2.48l-3.48.641q-.306-1.044-1.285-1.648-.985-.61-2.38-.61-1.938.001-3.14 1.075c-.804.718-1.207 1.875-1.207 3.48 0 1.703.399 2.914 1.188 3.637q1.188 1.083 3.086 1.082 1.4.002 2.41-.688c.672-.457 1.156-1.183 1.449-2.164M19.844 16.14c0 .97.297 1.708.89 2.223q.89.774 2.196.774 1.305 0 2.191-.774c.586-.515.883-1.261.883-2.242 0-.953-.297-1.687-.883-2.203q-.885-.772-2.191-.77c-.871 0-1.602.254-2.196.77-.593.516-.89 1.254-.89 2.223m-3.418-.136c0-.856.273-1.688.82-2.488q.815-1.202 2.32-1.836 1.5-.635 3.352-.637 2.86 0 4.687 1.437 1.83 1.442 1.829 3.633-.002 2.216-1.848 3.668-1.844 1.455-4.645 1.457a9.1 9.1 0 0 1-3.304-.605q-1.577-.607-2.39-1.778c-.548-.78-.821-1.734-.821-2.851M34.3 15.977c0 1.093.282 1.906.845 2.425.558.524 1.246.79 2.05.79.774 0 1.422-.243 1.934-.723q.774-.721.773-2.364 0-1.533-.797-2.277c-.527-.496-1.187-.742-1.968-.742q-1.22 0-2.032.726-.803.732-.804 2.165M31 11.266h3.11v1.433q.607-.738 1.636-1.195a5.6 5.6 0 0 1 2.293-.461q2.191 0 3.727 1.332 1.53 1.334 1.53 3.71 0 2.444-1.542 3.798-1.546 1.354-3.738 1.355c-.696 0-1.328-.11-1.895-.32-.566-.215-1.16-.586-1.785-1.102v4.91H31zM51.95 16.336q-.642.166-2.032.39-1.389.234-1.816.45c-.434.242-.649.543-.649.914q-.001.54.52.933c.347.266.793.395 1.328.395a3.5 3.5 0 0 0 1.722-.457c.403-.234.668-.516.793-.856.09-.218.133-.64.133-1.257Zm-4.462-2.094-3.027-.422q.511-1.418 1.754-2.097c.832-.45 2.066-.68 3.703-.68q2.234 0 3.324.41c.727.274 1.238.617 1.535 1.04q.446.626.446 2.308l-.035 3.012q0 1.284.16 1.894.163.61.601 1.309h-3.3a9 9 0 0 1-.32-.762 4 4 0 0 0-.118-.3c-.57.425-1.18.75-1.828.964a6.7 6.7 0 0 1-2.078.32q-1.946 0-3.067-.82-1.12-.814-1.12-2.063c0-.554.167-1.043.507-1.476.34-.43.816-.762 1.43-.988q.92-.343 2.656-.606c1.555-.223 2.637-.437 3.238-.633v-.254q-.001-.745-.476-1.062-.476-.316-1.79-.316-.89 0-1.39.27c-.332.179-.602.5-.805.952M69.52 15.691l-2.399-4.996-2.351 4.996Zm6.464 5.325h-3.82l-1.52-3.055h-6.953l-1.437 3.055h-3.727l6.778-13.461h3.715zM76.879 21.016v-9.75h3.332v9.75Zm0-11.07V7.554h3.332v2.39zM85.875 21.016h-3.336v-9.75h3.098v1.386q.797-.982 1.43-1.297a3.24 3.24 0 0 1 1.44-.312c.763 0 1.493.164 2.2.488l-1.035 2.25q-.845-.422-1.567-.422c-.464 0-.863.098-1.187.297q-.485.3-.766 1.078-.276.786-.277 3.27zM91.191 21.016V7.555h3.336v13.46zM96.996 21.016v-9.75h3.336v9.75Zm0-11.07V7.554h3.336v2.39zM114.266 21.016h-3.332v-4.977c0-1.055-.075-1.734-.215-2.043a1.55 1.55 0 0 0-.696-.719q-.481-.258-1.156-.257-.867-.002-1.555.367t-.945.972q-.253.61-.254 2.243v4.414h-3.336v-9.75h3.098v1.433c1.102-1.101 2.484-1.656 4.152-1.656q1.107.002 2.02.309.914.31 1.383.785.468.48.652 1.082.183.608.184 1.738zM124.188 15.305q-.037-1.119-.747-1.703-.709-.581-1.73-.582-1.094-.001-1.809.613-.71.616-.699 1.672Zm-.188 2.61 3.32.429a4.46 4.46 0 0 1-2.02 2.156q-1.38.738-3.46.738c-2.192 0-3.817-.554-4.867-1.664q-1.244-1.331-1.246-3.36 0-2.424 1.636-3.796c1.094-.914 2.477-1.375 4.145-1.375 1.875 0 3.351.48 4.437 1.437 1.082.961 1.602 2.426 1.555 4.407h-8.355q.035 1.148.808 1.785c.516.422 1.152.637 1.922.637q.783 0 1.316-.332.533-.33.809-1.063M128.094 18.234l3.347-.394c.145.5.43.883.868 1.144q.65.387 1.828.387 1.29 0 1.945-.363.439-.258.438-.692a.6.6 0 0 0-.239-.484q-.246-.186-1.113-.344c-2.688-.457-4.395-.875-5.113-1.258-.996-.523-1.496-1.257-1.496-2.19q0-1.267 1.293-2.134 1.294-.862 4.011-.863 2.584 0 3.844.656c.84.434 1.414 1.078 1.734 1.926l-3.144.45a1.56 1.56 0 0 0-.77-.872q-.562-.305-1.605-.305c-.879 0-1.508.098-1.887.286q-.38.202-.379.523 0 .276.332.469c.301.172 1.336.414 3.114.726q2.663.468 3.722 1.145 1.044.69 1.043 1.922.001 1.34-1.445 2.304-1.452.966-4.285.965-2.578 0-4.078-.808-1.501-.809-1.965-2.196" style="stroke:none;fill-rule:nonzero;fill:#3269bb;fill-opacity:1"/></svg>
